public/icons/cloudy.svg

<?xml version="1.0" ?>
<svg xmlns="http://www.w3.org/2000/svg" width="100" height="100" viewBox="0 0 100 100">
  <path d="M43.945,65.639c-8.835,0 -15.998,-7.162 -15.998,-15.998c0,-8.836 7.163,-15.998 15.998,-15.998c6.004,0 11.229,3.312 13.965,8.203c0.664,-0.113 1.338,-0.205 2.033,-0.205c6.627,0 11.999,5.373 11.999,12c0,6.625 -5.372,11.998 -11.999,11.998C57.168,65.639 47.143,65.639 43.945,65.639zM59.943,61.639c4.418,0 8,-3.582 8,-7.998c0,-4.418 -3.582,-8 -8,-8c-1.6,0 -3.082,0.481 -4.333,1.291c-1.231,-5.316 -5.974,-9.29 -11.665,-9.29c-6.626,0 -11.998,5.372 -11.998,11.999c0,6.626 5.372,11.998 11.998,11.998C47.562,61.639 56.924,61.639 59.943,61.639z" fill="#FF000000"/>
</svg>

<svg
    xmlns="http://www.w3.org/2000/svg"
    viewBox="0 0 100 100"
    id="vector">
    <path
        id="path"
        d="M 43.945 65.639 C 35.11 65.639 27.947 58.477 27.947 49.641 C 27.947 40.805 35.11 33.643 43.945 33.643 C 49.949 33.643 55.174 36.955 57.91 41.846 C 58.574 41.733 59.248 41.641 59.943 41.641 C 66.57 41.641 71.942 47.014 71.942 53.641 C 71.942 60.266 66.57 65.639 59.943 65.639 C 57.168 65.639 47.143 65.639 43.945 65.639 Z M 59.943 61.639 C 64.361 61.639 67.943 58.057 67.943 53.641 C 67.943 49.223 64.361 45.641 59.943 45.641 C 58.343 45.641 56.861 46.122 55.61 46.932 C 54.379 41.616 49.636 37.642 43.945 37.642 C 37.319 37.642 31.947 43.014 31.947 49.641 C 31.947 56.267 37.319 61.639 43.945 61.639 C 47.562 61.639 56.924 61.639 59.943 61.639 Z"
        fill="#000000"
        fill-rule="evenodd"/>
</svg>
